ix/ram_broken.svg

<svg viewBox="0 0 24 24" fill="none" xmlns="http://www.w3.org/2000/svg" height="1em" width="1em">
  <path d="M3.50023 11V17C3.50023 20 4.97023 22 8.50023 22H15.5002C18.9702 22 20.5002 20 20.5002 17V15.83C20.5002 15.3 20.2902 14.79 19.9102 14.42L19.0802 13.59C18.7002 13.21 18.4902 12.71 18.4902 12.18V10C18.4902 9.45 18.9402 9 19.4902 9C20.0402 9 20.4902 8.55 20.4902 8V7C20.4902 4 18.9602 2 15.4902 2H8.49023C4.96023 2 3.49023 4 3.49023 7" stroke="#292D32" stroke-width="1.5" stroke-linecap="round" stroke-linejoin="round"/>
  <path d="M7.99047 21.97L7.98047 19C7.98047 17.89 8.87047 17 9.98047 17H13.9905C15.0905 17 15.9805 17.89 15.9905 18.99L16.0205 21.98" stroke="#292D32" stroke-width="1.5" stroke-linecap="round" stroke-linejoin="round"/>
  <path d="M13.9707 7.78003H7.9707" stroke="#292D32" stroke-width="1.5" stroke-linecap="round" stroke-linejoin="round"/>
</svg>

<svg viewBox="0 0 24 24" fill="none" xmlns="http://www.w3.org/2000/svg" height="1em" width="1em">
  <path d="M3.5 11v6c0 3 1.47 5 5 5h7c3.47 0 5-2 5-5v-1.17c0-.53-.21-1.04-.59-1.41l-.83-.83c-.38-.38-.59-.88-.59-1.41V10c0-.55.45-1 1-1s1-.45 1-1V7c0-3-1.53-5-5-5h-7c-3.53 0-5 2-5 5" stroke="#292D32" stroke-width="1.5" stroke-linecap="round" stroke-linejoin="round"/>
  <path d="M7.99 21.97 7.98 19c0-1.11.89-2 2-2h4.01c1.1 0 1.99.89 2 1.99l.03 2.99m-2.05-14.2h-6" stroke="#292D32" stroke-width="1.5" stroke-linecap="round" stroke-linejoin="round"/>
</svg>
